Numix/24x24/categories/applications-biology.svg

<?xml version="1.0" encoding="UTF-8" standalone="no"?>
<svg
   xmlns:dc="http://purl.org/dc/elements/1.1/"
   xmlns:cc="http://creativecommons.org/ns#"
   xmlns:rdf="http://www.w3.org/1999/02/22-rdf-syntax-ns#"
   xmlns:svg="http://www.w3.org/2000/svg"
   xmlns="http://www.w3.org/2000/svg"
   xmlns:sodipodi="http://sodipodi.sourceforge.net/DTD/sodipodi-0.dtd"
   xmlns:inkscape="http://www.inkscape.org/namespaces/inkscape"
   width="24"
   height="24"
   viewBox="0 0 24 24"
   id="svg2"
   version="1.1"
   inkscape:version="0.91 r"
   sodipodi:docname="applications-biology.svg">
  <metadata
     id="metadata40">
    <rdf:RDF>
      <cc:Work
         rdf:about="">
        <dc:format>image/svg+xml</dc:format>
        <dc:type
           rdf:resource="http://purl.org/dc/dcmitype/StillImage" />
        <dc:title />
      </cc:Work>
    </rdf:RDF>
  </metadata>
  <defs
     id="defs38" />
  <sodipodi:namedview
     pagecolor="#ffffff"
     bordercolor="#666666"
     borderopacity="1"
     objecttolerance="10"
     gridtolerance="10"
     guidetolerance="10"
     inkscape:pageopacity="0"
     inkscape:pageshadow="2"
     inkscape:window-width="1920"
     inkscape:window-height="1056"
     id="namedview36"
     showgrid="false"
     inkscape:zoom="11.313708"
     inkscape:cx="-26.288244"
     inkscape:cy="24.014106"
     inkscape:window-x="0"
     inkscape:window-y="24"
     inkscape:window-maximized="1"
     inkscape:current-layer="svg2" />
  <g
     style="fill:#d68b85;stroke:#d68b85;stroke-width:1.0918324"
     id="g4"
     transform="matrix(0.91591612,0,0,0.91586696,1.1231695,1.1233545)">
    <path
       style="stroke-width:0.33846802"
       d="m 110.77763,199.18627 c 0.78013,-1.05515 0.54609,-2.61833 -0.54609,-3.39993 L 71.342133,167.88351 c -1.09218,-0.78159 -2.652437,-0.54711 -3.432566,0.54712 -0.780128,1.09422 -0.507083,2.61833 0.585097,3.39992 l 38.889406,27.94191 c 1.09218,0.78159 2.61343,0.50804 3.39356,-0.58619 z"
       transform="matrix(0.10014,0,0,0.09996,-3.66791,-0.30054)"
       id="path6"
       inkscape:connector-curvature="0" />
    <path
       style="stroke-width:0.32864153"
       d="m 104.92667,182.34296 c 0.97516,-0.93791 1.09218,-2.42293 0.19503,-3.36084 L 74.11159,145.99894 c -0.897148,-0.89883 -2.379393,-0.89883 -3.39356,0 -0.97516,0.93791 -1.053173,2.42293 -0.195032,3.36084 l 31.049112,32.98318 c 0.85815,0.93791 2.3794,0.93791 3.35456,0 z"
       transform="matrix(0.10014,0,0,0.09996,-3.66791,-0.30054)"
       id="path8"
       inkscape:connector-curvature="0" />
    <path
       style="stroke-width:0.33846802"
       d="m 195.81165,99.650535 c 0.93615,-0.97699 0.93615,-2.501095 0,-3.478085 L 161.91506,62.329519 c -0.93616,-0.93791 -2.45741,-0.93791 -3.43257,0 -0.93615,0.97699 -0.93615,2.501094 0,3.439005 l 33.85758,33.882011 c 0.97516,0.937905 2.49641,0.937905 3.47158,0 z"
       transform="matrix(0.10014,0,0,0.09996,-3.66791,-0.30054)"
       id="path10"
       inkscape:connector-curvature="0" />
    <path
       style="stroke-width:0.33191699"
       d="m 193.86132,116.92372 c 0.97516,-0.93791 1.05318,-2.42294 0.15603,-3.39993 l -31.5562,-33.530293 c -0.89715,-0.93791 -2.4184,-0.93791 -3.39356,-0.03908 -0.97516,0.93791 -1.05317,2.422935 -0.19503,3.399925 l 31.59521,33.530298 c 0.89714,0.93791 2.41839,0.97699 3.39355,0.0391 z"
       transform="matrix(0.10014,0,0,0.09996,-3.66791,-0.30054)"
       id="path12"
       inkscape:connector-curvature="0" />
    <path
       style="stroke-width:0.27186626"
       d="m 176.89353,119.38573 c 1.13118,-0.74251 1.67727,-1.9149 1.2092,-2.61833 L 161.40798,90.779466 c -0.46808,-0.742512 -1.7943,-0.742512 -2.92549,0 -1.13118,0.703433 -1.67727,1.875821 -1.2092,2.618333 l 16.73376,25.987931 c 0.46808,0.74251 1.75529,0.74251 2.88648,0 z"
       transform="matrix(0.10014,0,0,0.09996,-3.66791,-0.30054)"
       id="path14"
       inkscape:connector-curvature="0" />
    <path
       style="stroke-width:0.32209054"
       d="m 166.16676,140.87951 c 0.97516,-0.97699 1.01417,-2.42294 0.19503,-3.28269 L 135.74175,106.9975 c -0.85815,-0.85975 -2.34039,-0.78159 -3.27654,0.15632 -0.97516,0.93791 -1.01417,2.42293 -0.15603,3.28268 l 30.58104,30.59933 c 0.85814,0.85975 2.34039,0.78159 3.27654,-0.15632 z"
       transform="matrix(0.10014,0,0,0.09996,-3.66791,-0.30054)"
       id="path16"
       inkscape:connector-curvature="0" />
    <path
       style="stroke-width:0.25330511"
       d="m 100.16788,159.75495 c 1.1702,-0.70343 1.7943,-1.83674 1.40423,-2.46201 L 87.685827,134.43138 c -0.390065,-0.66436 -1.63827,-0.5862 -2.808463,0.0782 -1.170193,0.70344 -1.755289,1.79767 -1.365225,2.46202 l 13.886288,22.86156 c 0.390065,0.66436 1.63827,0.5862 2.769453,-0.0782 z"
       transform="matrix(0.10014,0,0,0.09996,-3.66791,-0.30054)"
       id="path18"
       inkscape:connector-curvature="0" />
    <g
       style="stroke-width:0.33846802"
       id="g20">
      <path
         d="m 231.69756,47.127556 c -5.03183,2.579253 -45.44249,-10.66873 -45.44249,-10.66873 0,0 10.3367,34.819921 12.52106,44.511661 2.18436,9.73082 2.18436,24.151193 2.18436,24.151193 -0.27304,6.56537 -2.80846,8.44119 -7.84029,14.10773 -4.99282,5.62747 -11.58491,4.68956 -14.70542,4.06428 -3.15952,-0.58619 -37.64121,-8.75383 -47.97791,-11.60664 -10.37571,-2.81373 -21.64857,-0.27356 -25.70523,2.54017 -4.09568,2.81373 -6.280039,10.62966 -6.280039,10.62966 -5.343881,22.90064 17.240839,68.97548 17.240839,68.97548 -1.87231,5.04127 -8.15234,10.04346 -8.15234,10.04346 0,0 -23.481871,-61.43313 -13.808277,-80.58213 9.751607,-19.10992 25.744247,-18.79729 32.648377,-18.79729 6.86513,0 50.43531,12.85719 57.6515,12.54455 7.21619,-0.31263 11.93597,3.12637 8.15235,-17.546734 -3.74462,-20.712186 -12.52107,-48.302382 -13.49623,-54.906834 -0.89714,-6.565372 2.84747,-10.317014 2.84747,-10.317014 0,0 4.71978,-5.940099 10.64876,-5.041268 5.96798,0.97699 31.67322,10.043457 40.76171,13.795098 1.75529,0.742512 0.42908,3.243607 -1.2482,4.103358 z"
         transform="matrix(0.10014,0,0,0.09996,-3.66791,-0.30054)"
         id="path22"
         inkscape:connector-curvature="0"
         style="stroke-width:0.33846802" />
      <path
         d="m 247.69019,62.485838 c -20.36135,12.231914 -35.45684,6.604452 -43.57018,5.940098 -8.15234,-0.625273 -33.23347,-11.919277 -39.20146,-12.818108 -5.96798,-0.97699 -10.64875,5.002189 -10.64875,5.002189 0,0 -3.78362,3.751641 -2.80846,10.356093 0.89714,6.565373 9.67359,34.15557 13.45721,54.86776 3.78363,20.6731 -0.93615,17.2341 -8.15234,17.54673 -7.21619,0.31264 -50.78637,-12.54455 -57.690506,-12.54455 -6.904138,0 -22.896774,-0.31263 -32.609374,18.83637 -9.712601,19.10992 2.496411,54.51604 2.496411,54.51604 0,0 16.967796,14.45945 15.368533,9.10554 0,0 -18.489047,-39.19683 -13.145167,-62.0584 0,0 2.18436,-7.855 6.241029,-10.70781 4.095675,-2.77465 15.407539,-5.31482 25.744244,-2.46201 10.3367,2.81373 44.81838,10.94229 47.9779,11.60664 3.12052,0.58619 9.6736,1.56318 14.70543,-4.10336 5.03183,-5.62746 7.52824,-7.50328 7.84029,-14.10773 0,0 0,-14.42038 -2.18436,-24.15119 -2.18436,-9.691744 -12.56007,-44.511666 -12.56007,-44.511666 0,0 38.03127,12.388233 42.04893,12.544551 7.80129,0.312637 22.54572,4.376915 34.44268,-2.501094 11.93596,-6.917089 12.24801,-10.356093 12.24801,-10.356093 z"
         transform="matrix(0.10014,0,0,0.09996,-3.66791,-0.30054)"
         id="path24"
         inkscape:connector-curvature="0"
         style="stroke-width:0.33846802" />
    </g>
    <path
       style="stroke-width:0.33410069"
       d="m 144.05011,146.35065 c 0.97517,-0.93791 0.97517,-2.50109 0.078,-3.39992 l -33.03845,-33.02226 c -0.89714,-0.89883 -2.4574,-0.89883 -3.39356,0.0782 -0.97516,0.93791 -0.97516,2.46201 -0.039,3.36084 l 32.99944,33.02226 c 0.93615,0.93791 2.4574,0.93791 3.39355,-0.0391 z"
       transform="matrix(0.10014,0,0,0.09996,-3.66791,-0.30054)"
       id="path26"
       inkscape:connector-curvature="0" />
    <path
       style="stroke-width:0.35375366"
       d="m 158.48249,147.6012 c 0.97516,-0.93791 0.89715,-2.57925 -0.15602,-3.59532 l -36.9781,-37.00838 c -1.05317,-1.05515 -2.65243,-1.09423 -3.62759,-0.15632 -0.93616,0.93791 -0.85815,2.57925 0.19503,3.59532 l 36.97809,37.00838 c 1.01417,1.05515 2.65244,1.09423 3.58859,0.15632 z"
       transform="matrix(0.10014,0,0,0.09996,-3.66791,-0.30054)"
       id="path28"
       inkscape:connector-curvature="0" />
    <path
       style="stroke-width:0.27186626"
       d="m 124.39088,141.27031 c 0.85814,-1.05515 1.01416,-2.34478 0.35105,-2.89189 l -23.63789,-19.85244 c -0.66311,-0.58619 -1.911317,-0.1954 -2.769458,0.85975 -0.897148,1.01607 -1.014168,2.3057 -0.390065,2.85281 l 23.676903,19.85244 c 0.66311,0.58619 1.91131,0.19539 2.76946,-0.82067 z"
       transform="matrix(0.10014,0,0,0.09996,-3.66791,-0.30054)"
       id="path30"
       inkscape:connector-curvature="0" />
    <path
       style="stroke-width:0.33846802"
       d="m 232.78974,72.333896 c 0.97516,-0.93791 0.97516,-2.462015 0,-3.439004 L 198.93216,35.05196 c -0.93615,-0.93791 -2.49641,-0.93791 -3.47157,0 -0.93616,0.937911 -0.93616,2.501094 0,3.439005 l 33.89658,33.842931 c 0.93616,0.97699 2.49641,0.97699 3.43257,0 z"
       transform="matrix(0.10014,0,0,0.09996,-3.66791,-0.30054)"
       id="path32"
       inkscape:connector-curvature="0" />
    <path
       style="stroke-width:0.32318237"
       d="m 213.94963,74.248796 c 1.01417,-0.820671 1.28722,-2.266616 0.50709,-3.243606 L 187.6203,36.419746 c -0.78013,-0.93791 -2.22337,-1.055149 -3.31555,-0.234477 -1.05317,0.820671 -1.32622,2.266616 -0.54609,3.243606 l 26.87543,34.546364 c 0.74112,0.97699 2.22336,1.094229 3.31554,0.273557 z"
       transform="matrix(0.10014,0,0,0.09996,-3.66791,-0.30054)"
       id="path34"
       inkscape:connector-curvature="0" />
  </g>
</svg>

<svg width="24" xmlns="http://www.w3.org/2000/svg" height="24" viewBox="0 0 24 24" xmlns:xlink="http://www.w3.org/1999/xlink">
<g style="fill:#d68b85;stroke:#d68b85">
<path style="stroke-width:.31" d="M 110.777632 199.186269 C 111.557761 198.13112 111.323722 196.567936 110.231542 195.786344 L 71.342133 167.883512 C 70.249953 167.10192 68.689696 167.336397 67.909567 168.430626 C 67.129439 169.524855 67.402484 171.048959 68.494664 171.830551 L 107.384073 199.772463 C 108.476253 200.554055 109.997504 200.280498 110.777632 199.186269 Z " transform="matrix(.10014 0 0 .09996 -3.66791 -.30054)"/>
<path style="stroke-width:.301" d="M 104.926668 182.342963 C 105.901829 181.405052 106.018848 179.920028 105.1217 178.982117 L 74.11159 145.998937 C 73.214442 145.100106 71.732197 145.100106 70.71803 145.998937 C 69.74287 146.936847 69.664857 148.421872 70.522998 149.359782 L 101.572115 182.342963 C 102.430257 183.280873 103.951507 183.280873 104.926668 182.342963 Z " transform="matrix(.10014 0 0 .09996 -3.66791 -.30054)"/>
<path style="stroke-width:.31" d="M 195.811646 99.650535 C 196.7478 98.673545 196.7478 97.14944 195.811646 96.17245 L 161.91506 62.329519 C 160.978905 61.391609 159.457655 61.391609 158.482494 62.329519 C 157.54634 63.306509 157.54634 64.830613 158.482494 65.768524 L 192.340074 99.650535 C 193.315234 100.588445 194.836485 100.588445 195.811646 99.650535 Z " transform="matrix(.10014 0 0 .09996 -3.66791 -.30054)"/>
<path style="stroke-width:.304" d="M 193.861324 116.923717 C 194.836485 115.985806 194.914498 114.500782 194.01735 113.523792 L 162.46115 79.993497 C 161.564002 79.055587 160.042751 79.055587 159.06759 79.954418 C 158.09243 80.892328 158.014417 82.377353 158.872558 83.354343 L 190.467765 116.884637 C 191.364913 117.822547 192.886164 117.861627 193.861324 116.923717 Z " transform="matrix(.10014 0 0 .09996 -3.66791 -.30054)"/>
<path style="stroke-width:.249" d="M 176.893528 119.385731 C 178.024714 118.643219 178.570804 117.470831 178.102727 116.767398 L 161.407976 90.779466 C 160.939899 90.036954 159.61368 90.036954 158.482494 90.779466 C 157.351307 91.482899 156.805217 92.655287 157.273295 93.397799 L 174.007052 119.385731 C 174.47513 120.128244 175.762342 120.128244 176.893528 119.385731 Z " transform="matrix(.10014 0 0 .09996 -3.66791 -.30054)"/>
<path style="stroke-width:.295" d="M 166.16676 140.87951 C 167.141921 139.90252 167.180927 138.456575 166.361792 137.596824 L 135.741746 106.997499 C 134.883605 106.137748 133.401361 106.215907 132.465206 107.153817 C 131.490046 108.091728 131.451039 109.576752 132.309181 110.436503 L 162.89022 141.035828 C 163.748362 141.895579 165.230606 141.81742 166.16676 140.87951 Z " transform="matrix(.10014 0 0 .09996 -3.66791 -.30054)"/>
<path style="stroke-width:.232" d="M 100.167884 159.754955 C 101.338077 159.051523 101.962179 157.918214 101.572115 157.292941 L 87.685827 134.431376 C 87.295762 133.767023 86.047557 133.845182 84.877364 134.509535 C 83.707171 135.212968 83.122075 136.307197 83.512139 136.97155 L 97.398427 159.833114 C 97.788492 160.497468 99.036697 160.419308 100.167884 159.754955 Z " transform="matrix(.10014 0 0 .09996 -3.66791 -.30054)"/>
<g style="stroke-width:.31">
<path d="M 231.69756 47.127556 C 226.665731 49.706809 186.255071 36.458826 186.255071 36.458826 C 186.255071 36.458826 196.591774 71.278747 198.776134 80.970487 C 200.960494 90.701307 200.960494 105.121678 200.960494 105.121678 C 200.687449 111.687051 198.152031 113.562871 193.120202 119.229413 C 188.127379 124.856875 181.535293 123.918965 178.414779 123.293691 C 175.255258 122.707497 140.773575 114.539861 130.436872 111.687051 C 120.061162 108.87332 108.788304 111.413493 104.731636 114.227224 C 100.635961 117.040955 98.451601 124.856875 98.451601 124.856875 C 93.10772 147.757519 115.692442 193.832364 115.692442 193.832364 C 113.820134 198.873632 107.540099 203.875821 107.540099 203.875821 C 107.540099 203.875821 84.058229 142.442694 93.731823 123.293691 C 103.48343 104.183768 119.476066 104.496405 126.380203 104.496405 C 133.245335 104.496405 176.815515 117.353592 184.031704 117.040955 C 191.247894 116.728319 195.967671 120.167323 192.184048 99.494216 C 188.439431 78.78203 179.662984 51.191834 178.687824 44.587382 C 177.790676 38.02201 181.535293 34.270368 181.535293 34.270368 C 181.535293 34.270368 186.255071 28.330269 192.184048 29.2291 C 198.152031 30.20609 223.857268 39.272557 232.945765 43.024198 C 234.701055 43.76671 233.374836 46.267805 231.69756 47.127556 Z " transform="matrix(.10014 0 0 .09996 -3.66791 -.30054)"/>
<path d="M 247.690195 62.485838 C 227.32884 74.717752 212.233352 69.09029 204.120015 68.425936 C 195.967671 67.800663 170.886538 56.506659 164.918555 55.607828 C 158.950571 54.630838 154.2698 60.610017 154.2698 60.610017 C 154.2698 60.610017 150.486176 64.361658 151.461337 70.96611 C 152.358485 77.531483 161.134931 105.121678 164.918555 125.833865 C 168.702178 146.506972 163.9824 143.067967 156.766211 143.380604 C 149.550022 143.693241 105.979841 130.836053 99.075704 130.836053 C 92.171566 130.836053 76.17893 130.523416 66.46633 149.672419 C 56.753729 168.782342 68.962741 204.188457 68.962741 204.188457 C 68.962741 204.188457 85.930537 218.647908 84.331274 213.294004 C 84.331274 213.294004 65.842227 174.097168 71.186107 151.235603 C 71.186107 151.235603 73.370467 143.380604 77.427136 140.527793 C 81.522811 137.753142 92.834675 135.212968 103.171379 138.065779 C 113.508082 140.87951 147.989765 149.008066 151.149285 149.672419 C 154.2698 150.258613 160.82288 151.235603 165.854709 145.569061 C 170.886538 139.941599 173.38295 138.065779 173.695001 131.461327 C 173.695001 131.461327 173.695001 117.040955 171.510641 107.310136 C 169.326281 97.618396 158.950571 62.798474 158.950571 62.798474 C 158.950571 62.798474 196.981839 75.186707 200.999501 75.343025 C 208.800786 75.655662 223.545216 79.71994 235.442177 72.841931 C 247.378144 65.924842 247.690195 62.485838 247.690195 62.485838 Z " transform="matrix(.10014 0 0 .09996 -3.66791 -.30054)"/>
</g>
<path style="stroke-width:.306" d="M 144.050115 146.350653 C 145.025276 145.412743 145.025276 143.849559 144.128128 142.950728 L 111.089684 109.928469 C 110.192536 109.029638 108.632279 109.029638 107.696124 110.006628 C 106.720964 110.944538 106.720964 112.468643 107.657118 113.367473 L 140.656556 146.389733 C 141.59271 147.327643 143.113961 147.327643 144.050115 146.350653 Z " transform="matrix(.10014 0 0 .09996 -3.66791 -.30054)"/>
<path style="stroke-width:.324" d="M 158.482494 147.601201 C 159.457655 146.66329 159.379642 145.021947 158.326468 144.005878 L 121.348374 106.997499 C 120.295201 105.94235 118.695937 105.90327 117.720776 106.841181 C 116.784622 107.779091 116.862635 109.420434 117.915809 110.436503 L 154.893903 147.444882 C 155.90807 148.500031 157.54634 148.539111 158.482494 147.601201 Z " transform="matrix(.10014 0 0 .09996 -3.66791 -.30054)"/>
<path style="stroke-width:.249" d="M 124.390876 141.270306 C 125.249017 140.215157 125.405043 138.92553 124.741933 138.378416 L 101.104038 118.52598 C 100.440929 117.939786 99.192723 118.330582 98.334582 119.385731 C 97.437434 120.401801 97.320414 121.691427 97.944517 122.238542 L 121.621419 142.090977 C 122.284528 142.677171 123.532734 142.286375 124.390876 141.270306 Z " transform="matrix(.10014 0 0 .09996 -3.66791 -.30054)"/>
<path style="stroke-width:.31" d="M 232.78974 72.333896 C 233.7649 71.395986 233.7649 69.871881 232.78974 68.894892 L 198.93216 35.05196 C 197.996006 34.11405 196.435749 34.11405 195.460588 35.05196 C 194.524434 35.989871 194.524434 37.553054 195.460588 38.490965 L 229.357174 72.333896 C 230.293328 73.310886 231.853585 73.310886 232.78974 72.333896 Z " transform="matrix(.10014 0 0 .09996 -3.66791 -.30054)"/>
<path style="stroke-width:.296" d="M 213.949635 74.248796 C 214.963802 73.428125 215.236847 71.98218 214.456718 71.00519 L 187.620296 36.419746 C 186.840167 35.481836 185.396929 35.364597 184.304749 36.185269 C 183.251576 37.00594 182.978531 38.451885 183.758659 39.428875 L 210.634088 73.975239 C 211.375211 74.952229 212.857455 75.069468 213.949635 74.248796 Z " transform="matrix(.10014 0 0 .09996 -3.66791 -.30054)"/>
</g>
</svg>
